Numix/scalable/categories/preferences-desktop-accessibility-symbolic.svg

<?xml version="1.0" encoding="UTF-8" standalone="no"?>
<!-- Created with Inkscape (http://www.inkscape.org/) -->

<svg
   xmlns:dc="http://purl.org/dc/elements/1.1/"
   xmlns:cc="http://creativecommons.org/ns#"
   xmlns:rdf="http://www.w3.org/1999/02/22-rdf-syntax-ns#"
   xmlns:svg="http://www.w3.org/2000/svg"
   xmlns="http://www.w3.org/2000/svg"
   xmlns:sodipodi="http://sodipodi.sourceforge.net/DTD/sodipodi-0.dtd"
   xmlns:inkscape="http://www.inkscape.org/namespaces/inkscape"
   version="1.1"
   width="16"
   height="16"
   id="svg7384"
   inkscape:version="0.91 r"
   sodipodi:docname="preferences-desktop-accessibility-symbolic.svg">
  <sodipodi:namedview
     pagecolor="#ffffff"
     bordercolor="#666666"
     borderopacity="1"
     objecttolerance="10"
     gridtolerance="10"
     guidetolerance="10"
     inkscape:pageopacity="0"
     inkscape:pageshadow="2"
     inkscape:window-width="1920"
     inkscape:window-height="1056"
     id="namedview9"
     showgrid="true"
     inkscape:zoom="29.5"
     inkscape:cx="-4.105772"
     inkscape:cy="6.4010345"
     inkscape:window-x="0"
     inkscape:window-y="24"
     inkscape:window-maximized="1"
     inkscape:current-layer="svg7384">
    <inkscape:grid
       type="xygrid"
       id="grid4144" />
  </sodipodi:namedview>
  <title
     id="title9167">elementary Symbolic Icon Theme</title>
  <defs
     id="defs11" />
  <metadata
     id="metadata90">
    <rdf:RDF>
      <cc:Work
         rdf:about="">
        <dc:format>image/svg+xml</dc:format>
        <dc:type
           rdf:resource="http://purl.org/dc/dcmitype/StillImage" />
        <dc:title>elementary Symbolic Icon Theme</dc:title>
      </cc:Work>
    </rdf:RDF>
  </metadata>
  <path
     inkscape:connector-curvature="0"
     id="path2555"
     d="M 8.0000001,-4.500001e-7 C 3.5858758,-4.500001e-7 -1.7500167e-7,3.5858752 -1.7500167e-7,8.0000004 -1.7500167e-7,12.414124 3.5858758,16.000001 8.0000001,16 12.414122,16 16.000004,12.414124 16,8.0000004 16,3.5858752 12.414122,-4.500001e-7 8.0000001,-4.500001e-7 Z M 8.0554711,2.7999996 c 0.6426707,0 1.1640627,0.533258 1.1640627,1.1906248 0,0.6573644 -0.521392,1.1914062 -1.1640627,1.1914062 -0.6426696,0 -1.1648437,-0.5340418 -1.1648437,-1.1914062 0,-0.6573664 0.5221741,-1.1906248 1.1648437,-1.1906248 z M 3.8601588,5.2359371 c 0.06011,0.00222 0.121674,0.014006 0.184375,0.025009 l 3.9554663,0.693749 3.9718739,-0.6648444 c 0.05377,-0.00898 0.09927,-0.023914 0.153125,-0.032812 0.154101,-0.017514 0.305151,0.067188 0.360157,0.2117182 0.055,0.1445157 4.4e-4,0.3120271 -0.126563,0.4007815 l -3.1023429,1.072657 0.0016,2.275781 1.0734379,3.4726566 c 0.09364,0.163321 0.03652,0.370738 -0.127344,0.464062 -0.163859,0.09332 -0.3727669,0.03676 -0.4664069,-0.126562 L 8.006226,9.3023444 6.2406008,13.035158 C 6.135253,13.192639 5.9111072,13.224523 5.7531004,13.119528 5.5950992,13.014556 5.563389,12.812141 5.6687264,12.654684 L 6.7624759,9.1968714 6.7835649,6.8874964 3.6843687,5.8820255 c -0.112835,-0.059114 -0.192926,-0.1682757 -0.191406,-0.295312 0.0015,-0.1270191 0.07715,-0.2608702 0.191406,-0.3171877 0.05713,-0.02816 0.115673,-0.035803 0.175781,-0.0336 z"
     style="fill:#bebebe;fill-opacity:1;stroke:none;stroke-width:1.003654;stroke-linecap:round;stroke-linejoin:round;stroke-miterlimit:4;stroke-dasharray:none;stroke-dashoffset:0;stroke-opacity:1" />
</svg>

<!-- Created with Inkscape (http://www.inkscape.org/) -->
<svg xmlns="http://www.w3.org/2000/svg" viewBox="0 0 16 16">
 <path d="m 8 0 c -4.414 0 -8 3.586 -8 8 0 4.414 3.586 8 8 8 4.414 0 8 -3.586 8 -8 0 -4.414 -3.586 -8 -8 -8 m 0.055 2.8 c 0.643 0 1.164 0.533 1.164 1.191 0 0.657 -0.521 1.191 -1.164 1.191 -0.643 0 -1.165 -0.534 -1.165 -1.191 0 -0.657 0.522 -1.191 1.165 -1.191 z m -4.195 2.436 c 0.06 0.002 0.122 0.014 0.184 0.025 l 3.955 0.694 3.972 -0.665 c 0.054 -0.009 0.099 -0.024 0.153 -0.033 0.154 -0.018 0.305 0.067 0.36 0.212 0.055 0.145 0 0.312 -0.127 0.401 l -3.102 1.073 0.002 2.276 1.073 3.473 c 0.094 0.163 0.037 0.371 -0.127 0.464 -0.164 0.093 -0.373 0.037 -0.466 -0.127 l -1.731 -3.726 -1.766 3.733 c -0.105 0.157 -0.329 0.189 -0.488 0.084 -0.158 -0.105 -0.19 -0.307 -0.084 -0.465 l 1.094 -3.458 0.021 -2.309 -3.099 -1.01 c -0.113 -0.059 -0.193 -0.168 -0.191 -0.295 0.002 -0.127 0.077 -0.261 0.191 -0.317 0.057 -0.028 0.116 -0.036 0.176 -0.034 z" style="fill:#bebebe;fill-opacity:1;stroke:none"/>
</svg>
